src/assets/icons/flag-usa.svg

<svg viewBox="0 0 22 16" fill="none" xmlns="http://www.w3.org/2000/svg">
<g clip-path="url(#clip0_30134_554)">
<g clip-path="url(#clip1_30134_554)">
<rect width="22" height="16" rx="2" fill="white"/>
<path fill-rule="evenodd" clip-rule="evenodd" d="M0 0H9.42857V7.46667H0V0Z" fill="#1A47B8"/>
<path fill-rule="evenodd" clip-rule="evenodd" d="M9.42857 0V1.06667H22V0H9.42857ZM9.42857 2.13333V3.2H22V2.13333H9.42857ZM9.42857 4.26667V5.33333H22V4.26667H9.42857ZM9.42857 6.4V7.46667H22V6.4H9.42857ZM0 8.53333V9.6H22V8.53333H0ZM0 10.6667V11.7333H22V10.6667H0ZM0 12.8V13.8667H22V12.8H0ZM0 14.9333V16H22V14.9333H0Z" fill="#F93939"/>
<path fill-rule="evenodd" clip-rule="evenodd" d="M1.04761 1.06689V2.13356H2.09523V1.06689H1.04761ZM3.14285 1.06689V2.13356H4.19046V1.06689H3.14285ZM5.23808 1.06689V2.13356H6.2857V1.06689H5.23808ZM7.33332 1.06689V2.13356H8.38094V1.06689H7.33332ZM6.2857 2.13356V3.20023H7.33332V2.13356H6.2857ZM4.19046 2.13356V3.20023H5.23808V2.13356H4.19046ZM2.09523 2.13356V3.20023H3.14285V2.13356H2.09523ZM1.04761 3.20023V4.26689H2.09523V3.20023H1.04761ZM3.14285 3.20023V4.26689H4.19046V3.20023H3.14285ZM5.23808 3.20023V4.26689H6.2857V3.20023H5.23808ZM7.33332 3.20023V4.26689H8.38094V3.20023H7.33332ZM1.04761 5.33356V6.40023H2.09523V5.33356H1.04761ZM3.14285 5.33356V6.40023H4.19046V5.33356H3.14285ZM5.23808 5.33356V6.40023H6.2857V5.33356H5.23808ZM7.33332 5.33356V6.40023H8.38094V5.33356H7.33332ZM6.2857 4.26689V5.33356H7.33332V4.26689H6.2857ZM4.19046 4.26689V5.33356H5.23808V4.26689H4.19046ZM2.09523 4.26689V5.33356H3.14285V4.26689H2.09523Z" fill="white"/>
</g>
</g>
<defs>
<clipPath id="clip0_30134_554">
<rect width="22" height="16" fill="white"/>
</clipPath>
<clipPath id="clip1_30134_554">
<rect width="22" height="16" rx="2" fill="white"/>
</clipPath>
</defs>
</svg>

<svg xmlns="http://www.w3.org/2000/svg" fill="none" viewBox="0 0 22 16"><g clip-path="url(#a)"><g clip-path="url(#b)"><rect width="22" height="16" fill="#fff" rx="2"/><path fill="#1A47B8" fill-rule="evenodd" d="M0 0h9.429v7.467H0V0Z" clip-rule="evenodd"/><path fill="#F93939" fill-rule="evenodd" d="M9.429 0v1.067H22V0H9.429Zm0 2.133V3.2H22V2.133H9.429Zm0 2.134v1.066H22V4.267H9.429Zm0 2.133v1.067H22V6.4H9.429ZM0 8.533V9.6h22V8.533H0Zm0 2.134v1.066h22v-1.066H0ZM0 12.8v1.067h22V12.8H0Zm0 2.133V16h22v-1.067H0Z" clip-rule="evenodd"/><path fill="#fff" fill-rule="evenodd" d="M1.048 1.067v1.067h1.047V1.067H1.048Zm2.095 0v1.067H4.19V1.067H3.143Zm2.095 0v1.067h1.048V1.067H5.238Zm2.095 0v1.067h1.048V1.067H7.333ZM6.286 2.134V3.2h1.047V2.134H6.286Zm-2.096 0V3.2h1.048V2.134H4.19Zm-2.095 0V3.2h1.048V2.134H2.095ZM1.048 3.2v1.067h1.047V3.2H1.048Zm2.095 0v1.067H4.19V3.2H3.143Zm2.095 0v1.067h1.048V3.2H5.238Zm2.095 0v1.067h1.048V3.2H7.333ZM1.048 5.334V6.4h1.047V5.334H1.048Zm2.095 0V6.4H4.19V5.334H3.143Zm2.095 0V6.4h1.048V5.334H5.238Zm2.095 0V6.4h1.048V5.334H7.333ZM6.286 4.267v1.067h1.047V4.267H6.286Zm-2.096 0v1.067h1.048V4.267H4.19Zm-2.095 0v1.067h1.048V4.267H2.095Z" clip-rule="evenodd"/></g></g><defs><clipPath id="a"><path fill="#fff" d="M0 0h22v16H0z"/></clipPath><clipPath id="b"><rect width="22" height="16" fill="#fff" rx="2"/></clipPath></defs></svg>
